Obsidian/actions/24s/zoom-2-to-1.svg

<svg height="24" viewBox="0 0 24 24" width="24" xmlns="http://www.w3.org/2000/svg"><path d="m3.1894531 2c-.6627 0-1.1875.54894-1.1875 1.21875v3.78125h2v-3h3v-2zm5.8125 0v2h2.9999999v3h2v-3.78125c0-.66981-.5248-1.21875-1.1875-1.21875zm-4 3v6h2v-6zm3 1v4l1.9999999-2zm1.9999999 2v2h1v-4h-1zm-7.9999999 1v3.78125c0 .66981.5248 1.21875 1.1875 1.21875h3.8125v-2h-3v-3zm9.9999999 0v3h-2.9999999v2h3.8124999c.6627 0 1.1875-.54894 1.1875-1.21875v-3.78125z" fill="#bebebe" transform="translate(4 4)"/></svg>

<svg xmlns="http://www.w3.org/2000/svg" width="24" height="24" viewBox="0 0 24 24">
 <defs>
  <style id="current-color-scheme" type="text/css">
   .ColorScheme-Text { color:#bebebe; } .ColorScheme-Highlight { color:#4285f4; }
  </style>
 </defs>
 <path style="fill:currentColor" class="ColorScheme-Text" d="M 3.1894531 2 C 2.5267531 2 2.0019531 2.54894 2.0019531 3.21875 L 2.0019531 7 L 4.0019531 7 L 4.0019531 4 L 7.0019531 4 L 7.0019531 2 L 3.1894531 2 z M 9.0019531 2 L 9.0019531 4 L 12.001953 4 L 12.001953 7 L 14.001953 7 L 14.001953 3.21875 C 14.001953 2.54894 13.477153 2 12.814453 2 L 9.0019531 2 z M 5.0019531 5 L 5.0019531 11 L 7.0019531 11 L 7.0019531 5 L 5.0019531 5 z M 8.0019531 6 L 8.0019531 10 L 10.001953 8 L 8.0019531 6 z M 10.001953 8 L 10.001953 10 L 11.001953 10 L 11.001953 6 L 10.001953 6 L 10.001953 8 z M 2.0019531 9 L 2.0019531 12.78125 C 2.0019531 13.45106 2.5267531 14 3.1894531 14 L 7.0019531 14 L 7.0019531 12 L 4.0019531 12 L 4.0019531 9 L 2.0019531 9 z M 12.001953 9 L 12.001953 12 L 9.0019531 12 L 9.0019531 14 L 12.814453 14 C 13.477153 14 14.001953 13.45106 14.001953 12.78125 L 14.001953 9 L 12.001953 9 z" transform="translate(4 4)"/>
</svg>
